static/images/clients/logo-gla-cell.svg

<svg width="256" height="166" viewBox="0 0 256 166" fill="none" xmlns="http://www.w3.org/2000/svg">
<rect opacity="0.1" width="256" height="166" fill="#95BCD1"/>
<path d="M87.634 63.9333C87.378 66.9484 85.5853 68.8364 82.5407 68.8364C79.0693 68.8364 76.7644 66.0467 76.7644 61.9044C76.7644 57.7622 79.0977 55.0007 82.4838 55.0007C84.9593 55.0007 86.382 56.2969 87.1219 58.3257H89.3698C88.6584 55.1134 86.2113 53 82.4838 53C78.0164 53 74.5165 56.4941 74.5165 61.9044C74.5165 67.3147 77.988 70.8089 82.5407 70.8089C86.8089 70.8089 89.7681 67.8219 89.7681 63.2006V62.0171H83.4512V63.9333H87.634Z" fill="#111111"/>
<path d="M98.2576 63.2288L103.266 70.5552H105.826L100.676 63.1443C103.408 62.778 105.115 61.1436 105.115 58.2694C105.115 55.0007 102.896 53.2536 99.3957 53.2536L92.9081 53.2536V70.5552H95.156V63.2288H98.2576ZM95.156 55.1979L99.3388 55.1979C101.644 55.1979 102.896 56.3532 102.896 58.2694C102.896 60.1855 101.644 61.3409 99.3388 61.3409H95.156V55.1979Z" fill="#111111"/>
<path d="M108.608 53.2536V70.5552H119.734V68.5546H110.828V62.6652H118.909V60.6927H110.828V55.2261H119.734V53.2536H108.608Z" fill="#111111"/>
<path d="M128.602 53.2536L121.772 70.5552H124.049L126.041 65.3422H133.24L135.26 70.5552H137.536L130.707 53.2536H128.602ZM129.626 56.0151L132.471 63.3979H126.78L129.626 56.0151Z" fill="#111111"/>
<path d="M137.423 55.2261L143.512 55.2261V70.5552H145.76V55.2261H151.849V53.2536L137.423 53.2536V55.2261Z" fill="#111111"/>
<path d="M154.791 53.2536V70.5552H165.917V68.5546H157.01V62.6652H165.091V60.6927H157.01V55.2261H165.917V53.2536H154.791Z" fill="#111111"/>
<path d="M174.784 63.2288L179.792 70.5552H182.353L177.203 63.1443C179.935 62.778 181.642 61.1436 181.642 58.2694C181.642 55.0007 179.423 53.2536 175.923 53.2536H169.435V70.5552H171.683V63.2288H174.784ZM171.683 55.1979H175.866C178.171 55.1979 179.423 56.3532 179.423 58.2694C179.423 60.1855 178.171 61.3409 175.866 61.3409H171.683V55.1979Z" fill="#111111"/>
<path d="M79.4998 99.2288L74 112.823H74.6931L76.5934 108.085H82.9875L84.9102 112.823H85.6033L80.1035 99.2288H79.4998ZM79.7905 100.181L82.7193 107.421H76.8617L79.7905 100.181Z" fill="#111111"/>
<path d="M92.9279 113C95.7449 113 98.1147 111.229 98.1147 107.487V99.2288H97.4216V107.376C97.4216 110.764 95.4095 112.358 92.9279 112.358C90.4462 112.358 88.4788 110.764 88.4788 107.376V99.2288H87.7857V107.487C87.7857 111.229 90.1109 113 92.9279 113Z" fill="#111111"/>
<path d="M100.653 99.893H105.839V112.823H106.532V99.893H111.742V99.2288H100.653V99.893Z" fill="#111111"/>
<path d="M124.633 99.2288V105.472L115.243 105.472V99.2288H114.55V112.823H115.243V106.137L124.633 106.137V112.823H125.326V99.2288H124.633Z" fill="#111111"/>
<path d="M140.293 106.026C140.293 101.819 137.744 99.0516 134.324 99.0516C130.925 99.0516 128.354 101.819 128.354 106.026C128.354 110.232 130.925 113 134.324 113C137.744 113 140.293 110.232 140.293 106.026ZM139.577 106.026C139.577 109.768 137.431 112.336 134.324 112.336C131.238 112.336 129.07 109.768 129.07 106.026C129.07 102.284 131.238 99.7158 134.324 99.7158C137.431 99.7158 139.577 102.284 139.577 106.026Z" fill="#111111"/>
<path d="M147.878 106.624L152.081 112.823H152.886L148.683 106.601C150.896 106.38 152.193 105.14 152.193 102.926C152.193 100.513 150.628 99.2288 148.012 99.2288H143.317V112.823H144.01V106.624H147.878ZM144.01 99.893H147.967C150.27 99.893 151.5 100.956 151.5 102.926C151.5 104.875 150.27 105.982 147.967 105.982H144.01V99.893Z" fill="#111111"/>
<path d="M156.505 99.2288H155.812V112.823H156.505V99.2288Z" fill="#111111"/>
<path d="M159.328 99.893H164.514V112.823H165.208V99.893H170.417V99.2288H159.328V99.893Z" fill="#111111"/>
<path d="M177.182 106.247L172.599 99.2288H171.817L176.825 106.889V112.823H177.518V106.889L182.526 99.2288H181.766L177.182 106.247Z" fill="#111111"/>
<path d="M75.1418 93.5585H86.9219V90.3744H78.784V76.2569H75.1418V93.5585Z" fill="#111111"/>
<path d="M105.971 84.9077C105.971 79.7228 102.557 75.9751 97.691 75.9751C92.8253 75.9751 89.4393 79.7228 89.4393 84.9077C89.4393 90.0644 92.8253 93.8403 97.691 93.8403C102.557 93.8403 105.971 90.0644 105.971 84.9077ZM102.301 84.9077C102.301 88.2891 100.48 90.628 97.691 90.628C94.931 90.628 93.1383 88.2891 93.1383 84.9077C93.1383 81.5263 94.931 79.1875 97.691 79.1875C100.48 79.1875 102.301 81.5263 102.301 84.9077Z" fill="#111111"/>
<path d="M124.599 76.2569H121.099V87.1902L113.388 76.2569H109.973V93.5585H113.473V82.0335L121.725 93.5585H124.599V76.2569Z" fill="#111111"/>
<path d="M133.045 90.3744V79.4129H135.464C138.793 79.4129 140.614 81.5263 140.614 84.9077C140.614 88.261 138.793 90.3744 135.464 90.3744H133.045ZM129.432 93.5585L135.606 93.5585C140.899 93.5585 144.228 90.1771 144.228 84.9077C144.228 79.6383 140.899 76.2569 135.606 76.2569H129.432V93.5585Z" fill="#111111"/>
<path d="M164.068 84.9077C164.068 79.7228 160.653 75.9751 155.788 75.9751C150.922 75.9751 147.536 79.7228 147.536 84.9077C147.536 90.0644 150.922 93.8403 155.788 93.8403C160.653 93.8403 164.068 90.0644 164.068 84.9077ZM160.397 84.9077C160.397 88.2891 158.576 90.628 155.788 90.628C153.028 90.628 151.235 88.2891 151.235 84.9077C151.235 81.5263 153.028 79.1875 155.788 79.1875C158.576 79.1875 160.397 81.5263 160.397 84.9077Z" fill="#111111"/>
<path d="M182.696 76.2569H179.196V87.1902L171.485 76.2569H168.07V93.5585H171.57V82.0335L179.822 93.5585H182.696V76.2569Z" fill="#111111"/>
</svg>

<svg xmlns="http://www.w3.org/2000/svg" fill="none" viewBox="0 0 256 166">
  <path fill="#95BCD1" d="M0 0h256v166H0z" opacity=".1"/>
  <path fill="#111" d="M87.6 64c-.2 3-2 4.8-5 4.8-3.5 0-5.8-2.8-5.8-6.9 0-4.1 2.3-6.9 5.7-6.9 2.5 0 3.9 1.3 4.6 3.3h2.3c-.7-3.2-3.2-5.3-7-5.3-4.4 0-7.9 3.5-7.9 8.9s3.5 9 8 9c4.3 0 7.3-3 7.3-7.7V62h-6.3v2h4.1zM98.3 63.2l5 7.4h2.5l-5.1-7.5c2.7-.3 4.4-2 4.4-4.8 0-3.3-2.2-5-5.7-5h-6.5v17.3h2.3v-7.4h3zm-3.1-8h4.1c2.3 0 3.6 1.2 3.6 3 0 2-1.3 3.1-3.6 3.1h-4.1v-6.1zM108.6 53.3v17.3h11.1v-2h-8.9v-6h8.1v-2h-8v-5.4h8.8v-2h-11zM128.6 53.3l-6.8 17.3h2.2l2-5.3h7.2l2 5.3h2.3l-6.8-17.3h-2.1zm1 2.7l2.9 7.4h-5.7l2.8-7.4zM137.4 55.2h6.1v15.4h2.3V55.2h6v-2h-14.4v2zM154.8 53.3v17.3h11.1v-2H157v-6h8v-2h-8v-5.4h9v-2h-11.2zM174.8 63.2l5 7.4h2.6l-5.2-7.5c2.7-.3 4.4-2 4.4-4.8 0-3.3-2.2-5-5.7-5h-6.5v17.3h2.3v-7.4h3zm-3.1-8h4.2c2.3 0 3.5 1.2 3.5 3 0 2-1.2 3.1-3.5 3.1h-4.2v-6.1zM79.5 99.2L74 112.8h.7l1.9-4.7H83l2 4.7h.6l-5.5-13.6h-.6zm.3 1l3 7.2h-6l3-7.2zM93 113c2.7 0 5.1-1.8 5.1-5.5v-8.3h-.7v8.2c0 3.4-2 5-4.5 5s-4.4-1.6-4.4-5v-8.2h-.7v8.3c0 3.7 2.3 5.5 5.1 5.5zM100.7 99.9h5.1v13h.7v-13h5.2v-.7h-11v.7zM124.6 99.2v6.3h-9.4v-6.3h-.7v13.6h.7v-6.7h9.4v6.7h.7V99.2h-.7zM140.3 106c0-4.2-2.6-7-6-7s-6 2.8-6 7 2.6 7 6 7 6-2.8 6-7zm-.7 0c0 3.8-2.2 6.3-5.3 6.3-3 0-5.2-2.5-5.2-6.3 0-3.7 2.1-6.3 5.2-6.3s5.3 2.6 5.3 6.3zM147.9 106.6l4.2 6.2h.8l-4.2-6.2c2.2-.2 3.5-1.5 3.5-3.7 0-2.4-1.6-3.7-4.2-3.7h-4.7v13.6h.7v-6.2h3.9zM144 100h4c2.3 0 3.5 1 3.5 3s-1.2 3-3.5 3h-4v-6zM156.5 99.2h-.7v13.6h.7V99.2zM159.3 99.9h5.2v13h.7v-13h5.2v-.7h-11v.7zM177.2 106.2l-4.6-7h-.8l5 7.7v6h.7v-6l5-7.7h-.7l-4.6 7zM75.1 93.6H87v-3.2h-8.1V76.3H75v17.3zM106 85c0-5.3-3.4-9-8.3-9s-8.3 3.7-8.3 9c0 5 3.4 8.8 8.3 8.8s8.3-3.7 8.3-8.9zm-3.7 0c0 3.3-1.8 5.6-4.6 5.6S93 88.3 93 85c0-3.4 1.8-5.7 4.6-5.7s4.6 2.3 4.6 5.7zM124.6 76.3h-3.5v10.9l-7.7-11H110v17.4h3.5V82l8.2 11.6h2.9V76.3zM133 90.4v-11h2.5c3.3 0 5.1 2.1 5.1 5.5s-1.8 5.5-5.1 5.5H133zm-3.6 3.2h6.2c5.3 0 8.6-3.4 8.6-8.7 0-5.3-3.3-8.6-8.6-8.6h-6.2v17.3zM164 85c0-5.3-3.3-9-8.2-9-4.9 0-8.3 3.7-8.3 9 0 5 3.4 8.8 8.3 8.8s8.3-3.7 8.3-8.9zm-3.6 0c0 3.3-1.8 5.6-4.6 5.6s-4.6-2.3-4.6-5.7c0-3.4 1.8-5.7 4.6-5.7s4.6 2.3 4.6 5.7zM182.7 76.3h-3.5v10.9l-7.7-11H168v17.4h3.5V82l8.2 11.6h2.9V76.3z"/>
</svg>
